X:192
T:Bundle and Go
R:jig
H:See also #366
Z:id:hn-jig-192
M:6/8
K:Edor
~E3 EDB,|~G3 AGA|AFD AFD|GAB d2e|
dBA GAB|AFE DEF|G2E FED|1 B,EE E3:|2 B,EE EGB||
|:~e3 edB|~d3 dBd|~e3 edB|def g2e|
dBA GAB|AFE DEF|G2E FED|1 B,EE EGB:|2 B,EE E3||

